img/icons/logo_footer.svg

<svg width="35" height="35" viewBox="0 0 35 35" fill="none" xmlns="http://www.w3.org/2000/svg">
<path d="M18.1948 10.8762L18.4004 16.2885C18.4004 16.2885 18.7601 16.1339 19.8394 15.8761C20.6616 15.5669 20.6616 15.5669 21.227 15.4638C21.227 15.4638 21.3297 12.8865 21.3811 12.7318C21.4325 12.5772 21.8951 12.371 22.9229 12.371C24.0021 12.371 24.4133 12.5772 24.4133 12.7834C24.4133 12.9896 24.5161 14.8452 24.5161 14.8452C24.5161 14.8452 26.9315 14.4844 29.3469 14.3297C31.8137 14.1751 34.5889 14.3297 34.5889 14.3297C34.5889 14.3297 34.4861 13.4535 34.075 12.2164C33.6125 10.8246 33.2527 10.103 33.2527 10.103C33.2527 10.103 30.9915 9.53596 25.5439 9.84524C21.1756 10.0514 18.1948 10.8762 18.1948 10.8762Z" fill="#B7B7B7"/>
<path d="M28.8331 4.07214C28.8331 4.07214 28.2164 3.3505 25.6468 1.95875C22.6661 0.360823 19.9937 -3.93265e-07 17.7838 -3.93265e-07C15.7795 -3.93265e-07 13.3127 0.25773 9.97224 1.64947C6.37479 3.19586 3.18848 7.268 3.18848 7.268C3.18848 7.268 8.17351 4.84533 15.6254 3.81441C22.8203 2.88658 28.8331 4.07214 28.8331 4.07214Z" fill="#B7B7B7"/>
<path d="M31.4542 7.01044C30.5805 5.82488 29.7068 4.9486 29.7068 4.9486C29.7068 4.9486 23.3342 3.45376 14.1864 5.25788C7.29988 6.59807 1.80092 9.63929 1.80092 9.63929C1.80092 9.63929 1.287 10.6702 0.721686 12.6805C0.259157 14.3815 0.10498 15.7733 0.10498 15.7733C0.10498 15.7733 2.05788 14.6908 5.91229 13.1444C12.1307 10.6187 14.649 10.1032 14.649 10.1032C14.649 10.1032 14.8031 7.47436 14.8545 7.31972C14.9059 7.11353 15.7282 6.9589 16.4991 6.9589C17.27 6.9589 18.195 7.11354 18.195 7.26817C18.195 7.42281 18.2464 9.43311 18.2464 9.43311C18.2464 9.43311 22.5119 8.76301 25.8524 8.76301C30.5805 8.71146 32.8418 9.22692 32.8418 9.22692C32.8418 9.22692 32.3278 8.24755 31.4542 7.01044Z" fill="#B7B7B7"/>
<path d="M0.00205578 18.1444C0.00205578 18.1444 -0.0493364 19.6393 0.361801 21.4434C0.721545 23.0413 1.23547 24.2784 1.23547 24.2784C1.23547 24.2784 4.47317 22.3197 7.45391 20.8248C11.3083 18.8661 14.1863 17.629 14.1863 17.629L14.4946 11.7012C14.4946 11.7012 11.5139 12.5259 6.52886 14.8455C1.6466 17.062 0.00205578 18.1444 0.00205578 18.1444Z" fill="#B7B7B7"/>
<path d="M18.4517 17.8863L18.6572 22.9894C18.6572 22.9894 19.2225 22.7317 19.7879 22.5255C20.3532 22.2677 20.8671 22.0616 20.8671 22.0616L21.1241 16.9585C21.1241 16.9585 20.6101 17.1131 19.6851 17.4224C19.1198 17.6286 18.9142 17.6801 18.4517 17.8863Z" fill="#B7B7B7"/>
<path d="M24.5679 16.1858C24.5679 16.1858 26.7263 15.6188 29.1418 15.4126C32.7392 15.1033 34.7435 15.3095 34.7435 15.3095C34.7435 15.3095 35.0005 16.4951 35.0005 17.6806C35.0005 18.66 34.8977 19.3817 34.8977 19.3817C34.8977 19.3817 33.5615 19.4332 32.2253 19.5878C31.1461 19.6909 29.7585 19.8971 29.7585 19.8971C29.7585 19.8971 29.6557 18.0415 29.6557 17.8353C29.6557 17.6806 29.1932 17.526 28.3195 17.526C27.5486 17.526 27.0347 17.6806 27.0347 17.7837C27.0347 17.9384 27.0347 17.6806 26.9319 20.2579C26.9319 20.2579 26.418 20.4126 25.9555 20.5157C25.4929 20.6188 24.8248 20.8249 24.8248 20.8249L24.5679 16.1858Z" fill="#B7B7B7"/>
<path d="M14.0835 19.5874L13.7751 25.3606C12.3876 26.2368 12.3362 26.2884 10.1777 27.6801C7.96783 29.1234 5.70658 30.9275 5.70658 30.9275C5.70658 30.9275 5.08987 30.4636 3.75368 28.8142C2.77723 27.6286 2.21191 26.4946 2.21191 26.4946C2.21191 26.4946 4.98709 24.4843 8.48175 22.474C11.925 20.5668 14.0835 19.5874 14.0835 19.5874Z" fill="#B7B7B7"/>
<path d="M13.6729 27.7837L13.416 34.1754L12.4909 35.0001C12.4909 35.0001 11.1033 34.4847 9.76711 33.8661C8.43092 33.196 7.50586 32.5259 7.50586 32.5259C7.50586 32.5259 9.04762 31.2373 10.1269 30.4125C11.6172 29.2785 13.6729 27.7837 13.6729 27.7837Z" fill="#B7B7B7"/>
<path d="M18.7085 24.8971L18.9141 30.6187L20.5072 29.5878L20.7642 23.8662C20.7642 23.8662 20.5586 23.9178 19.6336 24.3817C19.0168 24.7425 18.7085 24.8971 18.7085 24.8971Z" fill="#B7B7B7"/>
<path d="M29.7065 21.1338L29.8093 25.1029C29.8093 25.1029 31.4539 24.3812 32.1734 24.0719C32.9956 23.7627 33.8179 23.4018 33.8179 23.4018C33.8179 23.4018 34.0749 22.7317 34.3318 22.0616C34.6916 20.9276 34.743 20.3091 34.743 20.3091C34.743 20.3091 33.7665 20.3606 32.1734 20.6184C30.9913 20.8245 29.7065 21.1338 29.7065 21.1338Z" fill="#B7B7B7"/>
<path d="M24.9791 27.3708L26.4695 26.546L26.7779 21.7007C26.7779 21.7007 26.5209 21.7522 25.75 22.01C24.9277 22.3192 24.7222 22.3708 24.7222 22.3708L24.9791 27.3708Z" fill="#B7B7B7"/>
</svg>

<svg width="35" height="35" fill="none" xmlns="http://www.w3.org/2000/svg"><path d="M18.195 10.876l.205 5.412s.36-.154 1.44-.412c.822-.31.822-.31 1.387-.412 0 0 .103-2.578.154-2.732.052-.155.514-.361 1.542-.361 1.08 0 1.49.206 1.49.412 0 .207.103 2.062.103 2.062s2.416-.36 4.83-.515c2.468-.155 5.243 0 5.243 0s-.103-.877-.514-2.114c-.463-1.391-.822-2.113-.822-2.113s-2.262-.567-7.71-.258c-4.367.206-7.348 1.031-7.348 1.031zm10.638-6.804s-.617-.722-3.186-2.113C22.667.36 19.994 0 17.784 0c-2.004 0-4.471.258-7.812 1.65-3.597 1.546-6.784 5.618-6.784 5.618s4.986-2.423 12.437-3.454c7.195-.927 13.208.258 13.208.258z" fill="#B7B7B7"/><path d="M31.454 7.01c-.873-1.185-1.747-2.061-1.747-2.061s-6.373-1.495-15.52.309C7.3 6.598 1.8 9.639 1.8 9.639S1.287 10.67.72 12.681c-.462 1.7-.616 3.092-.616 3.092s1.953-1.082 5.807-2.629c6.219-2.525 8.737-3.04 8.737-3.04s.154-2.63.206-2.784c.05-.206.873-.361 1.644-.361.771 0 1.696.155 1.696.31 0 .154.051 2.164.051 2.164s4.266-.67 7.606-.67c4.729-.052 6.99.464 6.99.464s-.514-.98-1.388-2.217z" fill="#B7B7B7"/><path d="M.002 18.144s-.051 1.495.36 3.3c.36 1.597.873 2.834.873 2.834s3.238-1.958 6.219-3.453c3.854-1.959 6.732-3.196 6.732-3.196l.309-5.928s-2.981.825-7.966 3.144c-4.882 2.217-6.527 3.3-6.527 3.3zm18.45-.258l.205 5.103s.566-.257 1.13-.463c.566-.258 1.08-.464 1.08-.464l.257-5.104s-.514.155-1.439.464c-.565.207-.77.258-1.233.464zm6.116-1.7s2.158-.567 4.574-.773c3.597-.31 5.601-.104 5.601-.104s.258 1.186.258 2.372c0 .979-.103 1.7-.103 1.7s-1.337.052-2.673.207c-1.079.103-2.466.31-2.466.31s-.103-1.857-.103-2.063c0-.154-.463-.309-1.336-.309-.771 0-1.285.155-1.285.258 0 .154 0-.103-.103 2.474 0 0-.514.155-.976.258-.463.103-1.131.309-1.131.309l-.257-4.64zm-10.484 3.401l-.309 5.774c-1.387.876-1.439.927-3.597 2.32-2.21 1.442-4.471 3.246-4.471 3.246s-.617-.463-1.953-2.113a13.731 13.731 0 0 1-1.542-2.32s2.775-2.01 6.27-4.02c3.443-1.907 5.602-2.887 5.602-2.887zm-.411 8.197l-.257 6.391-.925.825s-1.388-.515-2.724-1.134c-1.336-.67-2.261-1.34-2.261-1.34s1.542-1.289 2.62-2.114a249.054 249.054 0 0 1 3.547-2.628zm5.036-2.887l.205 5.722 1.593-1.031.257-5.722s-.205.052-1.13.516c-.617.36-.925.515-.925.515zm10.997-3.763l.103 3.969s1.645-.722 2.364-1.031c.823-.31 1.645-.67 1.645-.67l.514-1.34c.36-1.134.411-1.753.411-1.753s-.977.052-2.57.31a46.325 46.325 0 0 0-2.467.515zM24.98 27.37l1.49-.824.308-4.845s-.257.051-1.028.309c-.822.31-1.028.36-1.028.36l.257 5z" fill="#B7B7B7"/></svg>
